T: Gan Ainm
M: 2/4
L: 1/8
K: Dmaj
(E^C) E (G|FD) F (G|E^C) EF|D4|(B^G) B (d|cA) c (d|B^G) BC|A4|(E^C) E (G|FD) F (G|E^C) EF|D4 ||
